svgs/sharp-light/laptop-arrow-down.svg

<svg xmlns="http://www.w3.org/2000/svg" viewBox="0 0 640 512"><!--! Font Awesome Pro 6.6.0 by @fontawesome - https://fontawesome.com License - https://fontawesome.com/license (Commercial License) Copyright 2024 Fonticons, Inc. --><path d="M96 32l176 0 0 32L96 64l0 288-32 0L64 64l0-32 32 0zM544 64L368 64l0-32 176 0 32 0 0 32 0 288-32 0 0-288zM61.3 448l517.5 0L608 418.7l0-2.7L32 416l0 2.7L61.3 448zM640 384l0 32 0 16-48 48L48 480 0 432l0-16 0-32 32 0 576 0 32 0zM336 48l0 217.4 52.7-52.7L400 201.4 422.6 224l-11.3 11.3-80 80L320 326.6l-11.3-11.3-80-80L217.4 224 240 201.4l11.3 11.3L304 265.4 304 48l0-16 32 0 0 16z"/></svg>

<svg xmlns="http://www.w3.org/2000/svg" viewBox="0 0 640 512"><!--! Font Awesome Pro 6.4.2 by @fontawesome - https://fontawesome.com License - https://fontawesome.com/license (Commercial License) Copyright 2023 Fonticons, Inc. --><path d="M96 32H272V64H96V352H64V64 32H96zM544 64H368V32H544h32V64 352H544V64zM61.3 448H578.7L608 418.7V416H32v2.7L61.3 448zM640 384v32 16l-48 48H48L0 432V416 384H32 608h32zM336 48V265.4l52.7-52.7L400 201.4 422.6 224l-11.3 11.3-80 80L320 326.6l-11.3-11.3-80-80L217.4 224 240 201.4l11.3 11.3L304 265.4V48 32h32V48z"/></svg>
